assets/icons/camera.svg

<?xml version="1.0" encoding="utf-8"?><!-- Uploaded to: SVG Repo, www.svgrepo.com, Generator: SVG Repo Mixer Tools -->
<svg width="800px" height="800px" viewBox="0 0 24 24" fill="none" xmlns="http://www.w3.org/2000/svg">
<circle cx="12" cy="13" r="3" stroke="#1C274C" stroke-width="1.5"/>
<path d="M2 13.3636C2 10.2994 2 8.76721 2.74902 7.6666C3.07328 7.19014 3.48995 6.78104 3.97524 6.46268C4.69555 5.99013 5.59733 5.82123 6.978 5.76086C7.63685 5.76086 8.20412 5.27068 8.33333 4.63636C8.52715 3.68489 9.37805 3 10.3663 3H13.6337C14.6219 3 15.4728 3.68489 15.6667 4.63636C15.7959 5.27068 16.3631 5.76086 17.022 5.76086C18.4027 5.82123 19.3044 5.99013 20.0248 6.46268C20.51 6.78104 20.9267 7.19014 21.251 7.6666C22 8.76721 22 10.2994 22 13.3636C22 16.4279 22 17.9601 21.251 19.0607C20.9267 19.5371 20.51 19.9462 20.0248 20.2646C18.9038 21 17.3433 21 14.2222 21H9.77778C6.65675 21 5.09624 21 3.97524 20.2646C3.48995 19.9462 3.07328 19.5371 2.74902 19.0607C2.53746 18.7498 2.38566 18.4045 2.27673 18" stroke="#1C274C" stroke-width="1.5" stroke-linecap="round"/>
<path d="M19 10H18" stroke="#1C274C" stroke-width="1.5" stroke-linecap="round"/>
</svg>

<svg xmlns="http://www.w3.org/2000/svg" width="800" height="800" fill="none" viewBox="0 0 24 24"><circle cx="12" cy="13" r="3" stroke="#1C274C" stroke-width="1.5"/><path stroke="#1C274C" stroke-linecap="round" stroke-width="1.5" d="M2 13.364c0-3.065 0-4.597.749-5.697.324-.477.74-.886 1.226-1.204.72-.473 1.622-.642 3.003-.702.659 0 1.226-.49 1.355-1.125A2.064 2.064 0 0 1 10.366 3h3.268c.988 0 1.839.685 2.033 1.636.129.635.696 1.125 1.355 1.125 1.38.06 2.282.23 3.003.702.485.318.902.727 1.226 1.204.749 1.1.749 2.632.749 5.697s0 4.596-.749 5.697a4.4 4.4 0 0 1-1.226 1.204C18.904 21 17.343 21 14.222 21H9.778c-3.121 0-4.682 0-5.803-.735A4.4 4.4 0 0 1 2.75 19.06 3.4 3.4 0 0 1 2.277 18M19 10h-1"/></svg>
